X: 30
T:Collier's Daughter (The Duke of Rutland's Delight)
M:4/4
L:1/8
K:Gm
dc|B2 G2 G2 G2|G4 D4|D2 F4 F2|A2 c4 dc|B2 G2 G2 G2|G4 D4|cBAG cBAG |B2 G
:\
ef|gf=ed cded| c4 f4| cBAG FGAB| A4 c4|B2 G2 A2 D2| B2 G2 A2 D2 gef=ef g
